theme-base/src/main/assets/themes/mapsforgeV3/base/symbols/db_poi_police.svg

<svg enable-background="new 0 0 48 48" height="48" viewBox="0 0 48 48" width="48" xmlns="http://www.w3.org/2000/svg"><path d="m24 2-18 8v12c0 11.1 7.68 21.48 18 24 10.32-2.52 18-12.9 18-24v-12zm-14 10.6 14-6.222 10.073 4.477-22.72 18.513c-.864-2.325-1.353-4.816-1.353-7.368zm14 29.253c-3.259-1-6.165-2.976-8.481-5.561l22.481-18.317v4.025c0 9.034-5.954 17.385-14 19.853z"/></svg>

<?xml version="1.0" encoding="utf-8"?>
<!-- Generator: Adobe Illustrator 15.0.2, SVG Export Plug-In . SVG Version: 6.00 Build 0)  -->
<!DOCTYPE svg PUBLIC "-//W3C//DTD SVG 1.1//EN" "http://www.w3.org/Graphics/SVG/1.1/DTD/svg11.dtd">
<svg version="1.1" id="Vrstva_3" xmlns="http://www.w3.org/2000/svg" xmlns:xlink="http://www.w3.org/1999/xlink" x="0px" y="0px"
	 width="48px" height="48px" viewBox="0 0 48 48" enable-background="new 0 0 48 48" xml:space="preserve">
<path d="M24,2L6,10v12c0,11.1,7.68,21.48,18,24c10.32-2.52,18-12.9,18-24V10L24,2z M10,12.6l14-6.222l10.073,4.477L11.353,29.368
	C10.489,27.043,10,24.552,10,22V12.6z M24,41.853c-3.259-1-6.165-2.976-8.481-5.561L38,17.975V22C38,31.034,32.046,39.385,24,41.853
	z"/>
</svg>
